X:475
T:Gael, The I
C:Dougie MacLean
B:The Nineties Collection
Z:Nigel Gatherer
R:air
M:4/4
L:1/8
K:Dm
a3g ab3  | a4  gf3  | g3e gc'3 | e4  dc3  |
f3c df3  | g3c dg3  | a3g ab3  | af3 ge3 :|
a3d ad'3 | ad3 dd'3 | g3c gc'3 | gc3 cc'3 |
f3c df3  | g3c dg3  | a3g ab3  | af3 ge3 :|
<end>
<start>
